assets/Card index dividers/Flat/card_index_dividers_flat.svg

<svg width="32" height="32" viewBox="0 0 32 32" fill="none" xmlns="http://www.w3.org/2000/svg">
<path d="M18 4.5C18 3.67157 18.6716 3 19.5 3H23.5C24.3284 3 25 3.67157 25 4.5V5L21.5 5.5L18 5V4.5Z" fill="#00D26A"/>
<path d="M2 8C2 6.34315 3.34315 5 5 5H27C28.6569 5 30 6.34315 30 8V12H2V8Z" fill="#FFB02E"/>
<path d="M13 8.5C13 7.67157 13.6716 7 14.5 7H18.5C19.3284 7 20 7.67157 20 8.5V9L16.5 10L13 9V8.5Z" fill="#00A6ED"/>
<path d="M2 12C2 10.3431 3.34315 9 5 9H27C28.6569 9 30 10.3431 30 12V17H2V12Z" fill="#F9C23C"/>
<path d="M7 12.5C7 11.6716 7.67157 11 8.5 11H12.5C13.3284 11 14 11.6716 14 12.5V13L10.5 14L7 13V12.5Z" fill="#F8312F"/>
<path d="M2 16C2 14.3431 3.34315 13 5 13H27C28.6569 13 30 14.3431 30 16V27C30 28.6569 28.6569 30 27 30H5C3.34315 30 2 28.6569 2 27V16Z" fill="#FCD53F"/>
</svg>

<svg xmlns="http://www.w3.org/2000/svg" width="32" height="32" fill="none"><path fill="#00D26A" d="M18 4.5A1.5 1.5 0 0 1 19.5 3h4A1.5 1.5 0 0 1 25 4.5V5l-3.5.5L18 5v-.5Z"/><path fill="#FFB02E" d="M2 8a3 3 0 0 1 3-3h22a3 3 0 0 1 3 3v4H2V8Z"/><path fill="#00A6ED" d="M13 8.5A1.5 1.5 0 0 1 14.5 7h4A1.5 1.5 0 0 1 20 8.5V9l-3.5 1L13 9v-.5Z"/><path fill="#F9C23C" d="M2 12a3 3 0 0 1 3-3h22a3 3 0 0 1 3 3v5H2v-5Z"/><path fill="#F8312F" d="M7 12.5A1.5 1.5 0 0 1 8.5 11h4a1.5 1.5 0 0 1 1.5 1.5v.5l-3.5 1L7 13v-.5Z"/><path fill="#FCD53F" d="M2 16a3 3 0 0 1 3-3h22a3 3 0 0 1 3 3v11a3 3 0 0 1-3 3H5a3 3 0 0 1-3-3V16Z"/></svg>
